styles/4/Numix/64/places/blue-user-desktop.svg

<?xml version="1.0" encoding="UTF-8" standalone="no"?>
<!-- Created with Inkscape (http://www.inkscape.org/) -->

<svg
   xmlns:dc="http://purl.org/dc/elements/1.1/"
   xmlns:cc="http://creativecommons.org/ns#"
   xmlns:rdf="http://www.w3.org/1999/02/22-rdf-syntax-ns#"
   xmlns:svg="http://www.w3.org/2000/svg"
   xmlns="http://www.w3.org/2000/svg"
   xmlns:sodipodi="http://sodipodi.sourceforge.net/DTD/sodipodi-0.dtd"
   xmlns:inkscape="http://www.inkscape.org/namespaces/inkscape"
   width="64"
   height="64"
   id="svg2"
   version="1.1"
   inkscape:version="0.91 r"
   sodipodi:docname="blue-user-desktop.svg"
   inkscape:export-filename="/media/Data/Main/Visuals/Icons/Numix/Desktop/repos/numix-wiki/Gjorgi/Numix-folders/48/New/folder-144.png"
   inkscape:export-xdpi="270"
   inkscape:export-ydpi="270">
  <defs
     id="defs4" />
  <sodipodi:namedview
     id="base"
     pagecolor="#ffffff"
     bordercolor="#666666"
     borderopacity="1.0"
     inkscape:pageopacity="0.0"
     inkscape:pageshadow="2"
     inkscape:zoom="9.1850986"
     inkscape:cx="12.060495"
     inkscape:cy="29.835024"
     inkscape:document-units="px"
     inkscape:current-layer="layer1"
     showgrid="true"
     inkscape:window-width="1280"
     inkscape:window-height="998"
     inkscape:window-x="0"
     inkscape:window-y="0"
     inkscape:window-maximized="1"
     showguides="true"
     inkscape:guide-bbox="true">
    <inkscape:grid
       type="xygrid"
       id="grid2985"
       empspacing="5"
       visible="true"
       enabled="true"
       snapvisiblegridlinesonly="true" />
  </sodipodi:namedview>
  <metadata
     id="metadata7">
    <rdf:RDF>
      <cc:Work
         rdf:about="">
        <dc:format>image/svg+xml</dc:format>
        <dc:type
           rdf:resource="http://purl.org/dc/dcmitype/StillImage" />
        <dc:title />
      </cc:Work>
    </rdf:RDF>
  </metadata>
  <g
     inkscape:label="Layer 1"
     inkscape:groupmode="layer"
     id="layer1"
     transform="translate(0,-988.3622)">
    <path
       style="fill:#1976d2;fill-opacity:1;stroke:none"
       d="m 8,998.36219 47,0 c 2,0 3,0.99975 3,2.99921 l 0,6.9982 c 0,1.1077 -0.9474,0.9997 -2,0.9997 l -48,0 c -1.0526,0 -2,-0.8918 -2,-1.9995 l 0,-8.99761 z"
       id="path3811"
       inkscape:connector-curvature="0"
       sodipodi:nodetypes="csssssscc" />
    <path
       style="opacity:0.02999998;fill:#000000;fill-opacity:1;stroke:none"
       d="m 6,1004.3623 0,4.9999 52,0 0,-4.9999 z"
       id="path3807"
       inkscape:connector-curvature="0" />
    <path
       style="fill:#1976d2;fill-opacity:1;stroke:none"
       d="m 6,1002.3622 0,-4.99998 c 0,-2 0.909091,-3 1.8181819,-3 l 10.3636361,0 c 0.909091,0 1.818182,1 1.818182,3 l 0,4.99998 z"
       id="rect3760"
       inkscape:connector-curvature="0"
       sodipodi:nodetypes="csssscc" />
    <rect
       style="fill:#42a5f5;fill-opacity:1;stroke:none"
       id="rect2990"
       width="60"
       height="40"
       x="2"
       y="1006.3622"
       rx="4"
       ry="3.3333333" />
    <path
       style="opacity:0.1;fill:#ffffff;fill-opacity:1;stroke:none"
       d="m 6,1006.3622 c -2.216,0 -4,1.4971 -4,3.3438 l 0,2 c 0,-1.8467 1.784,-3.3438 4,-3.3438 l 52,0 c 2.216,0 4,1.4971 4,3.3438 l 0,-2 c 0,-1.8467 -1.784,-3.3438 -4,-3.3438 l -52,0 z"
       id="rect3004"
       inkscape:connector-curvature="0" />
    <path
       style="opacity:0.05;fill:#000000;fill-opacity:1;stroke:none"
       d="m 20,998.3622 0,2 2,0 33,0 c 2,0 3,1.0005 3,3 l 0,-2 c 0,-1.99946 -1,-3 -3,-3 l -33,0 z"
       id="path3781"
       inkscape:connector-curvature="0"
       sodipodi:nodetypes="cccscsscc" />
    <path
       style="opacity:0.05;fill:#000000;fill-opacity:1;stroke:none"
       d="m 7.8125,994.3622 c -0.9090909,0 -1.8125,1 -1.8125,3 l 0,2 c 0,-2 0.9034091,-3 1.8125,-3 l 10.375,0 c 0.909091,0 1.8125,1 1.8125,3 l 0,-2 c 0,-2 -0.903409,-3 -1.8125,-3 l -10.375,0 z"
       id="path3801"
       inkscape:connector-curvature="0" />
    <path
       style="opacity:1.0;fill:#2a74b9;fill-opacity:1"
       d="M 22 24 C 19.784 24 18 25.784 18 28 L 18 42 C 18 44.216 19.784 46 22 46 L 28 46 L 24 50 C 22 52 22 52 24 52 L 40 52 C 42 52 42 52 40 50 L 36 46 L 42 46 C 44.216 46 46 44.216 46 42 L 46 28 C 46 25.784 44.216 24 42 24 L 22 24 z M 22 28 L 42 28 L 42 42 L 22 42 L 22 28 z M 27 30 C 27 30 24.999867 30 25 32 L 25 38 C 25.000133 40 27 40 27 40 L 33 40 C 35 40 35 38 35 38 L 35 34 L 31 30 L 27 30 z M 27 32 L 30 32 L 30 35 L 33 35 L 33 38 L 27 38 L 27 32 z "
       transform="translate(0,988.3622)"
       id="path8-8" />
  </g>
</svg>

<!-- Created with Inkscape (http://www.inkscape.org/) -->
<svg xmlns="http://www.w3.org/2000/svg" viewBox="0 0 64 64">
 <g transform="translate(0,-988.3622)">
  <path d="m 8 998.36 47 0 c 2 0 3 1 3 2.999 l 0 6.998 c 0 1.108 -0.947 1 -2 1 l -48 0 c -1.053 0 -2 -0.892 -2 -2 l 0 -8.998 z" style="fill:#1976d2;fill-opacity:1;stroke:none"/>
  <path d="m 6 1004.36 0 5 52 0 0 -5 z" style="fill:#000;opacity:0.03;fill-opacity:1;stroke:none"/>
  <path d="m 6 1002.36 0 -5 c 0 -2 0.909 -3 1.818 -3 l 10.364 0 c 0.909 0 1.818 1 1.818 3 l 0 5 z" style="fill:#1976d2;fill-opacity:1;stroke:none"/>
  <rect width="60" height="40" x="2" y="1006.36" rx="4" ry="3.333" style="fill:#42a5f5;fill-opacity:1;stroke:none"/>
  <path d="m 6 1006.36 c -2.216 0 -4 1.497 -4 3.344 l 0 2 c 0 -1.847 1.784 -3.344 4 -3.344 l 52 0 c 2.216 0 4 1.497 4 3.344 l 0 -2 c 0 -1.847 -1.784 -3.344 -4 -3.344 l -52 0 z" style="fill:#fff;opacity:0.1;fill-opacity:1;stroke:none"/>
  <path d="m 20 998.36 0 2 2 0 33 0 c 2 0 3 1 3 3 l 0 -2 c 0 -1.999 -1 -3 -3 -3 l -33 0 z" style="fill:#000;opacity:0.05;fill-opacity:1;stroke:none"/>
  <path d="m 7.813 994.36 c -0.909 0 -1.813 1 -1.813 3 l 0 2 c 0 -2 0.903 -3 1.813 -3 l 10.375 0 c 0.909 0 1.813 1 1.813 3 l 0 -2 c 0 -2 -0.903 -3 -1.813 -3 l -10.375 0 z" style="fill:#000;opacity:0.05;fill-opacity:1;stroke:none"/>
  <path d="m 22 24 c -2.216 0 -4 1.784 -4 4 l 0 14 c 0 2.216 1.784 4 4 4 l 6 0 l -4 4 c -2 2 -2 2 0 2 l 16 0 c 2 0 2 0 0 -2 l -4 -4 l 6 0 c 2.216 0 4 -1.784 4 -4 l 0 -14 c 0 -2.216 -1.784 -4 -4 -4 l -20 0 z m 0 4 l 20 0 l 0 14 l -20 0 l 0 -14 z m 5 2 c 0 0 -2 0 -2 2 l 0 6 c 0 2 2 2 2 2 l 6 0 c 2 0 2 -2 2 -2 l 0 -4 l -4 -4 l -4 0 z m 0 2 l 3 0 l 0 3 l 3 0 l 0 3 l -6 0 l 0 -6 z" transform="translate(0,988.3622)" style="fill:#2a74b9;opacity:1;fill-opacity:1"/>
 </g>
</svg>
